src/topics/icons/buck.svg

<svg height="223" preserveAspectRatio="xMidYMid" viewBox="0 0 256 223" width="256" xmlns="http://www.w3.org/2000/svg"><g fill="#4a69a5"><path d="m72.4263785 0h-18.5608382v52.5075627l22.634771 22.634771h-27.1595524l-29.6500834-29.6500834v-45.4922503h-19.6906755v53.8655403l40.2857641 40.2884801h54.3191049l19.465251 19.4625356h-52.0567139l43.9088479 45.266826-64.2785123 63.824948h25.3507263l64.275797-64.729361-24.443597-24.443598h129.915003v8.147866l-56.130647 33.495876-47.075653 47.529217h26.705988l32.137899-32.591463 63.374099-38.023373v-38.476938h-59.751015l-20.369664-20.3696647 23.085619-23.0856195v-51.6031496h-19.239827v43.0044353l-18.783546 18.5581222-16.749296-17.539639v-44.0229185h-18.107274v52.5102786l42.336311 42.5481552h-25.831451l-69.9168355-69.256859z"/><path d="m170.651616 145.303605h-25.348011l12.221799 13.126212z"/></g></svg>

<?xml version="1.0" encoding="UTF-8" standalone="no"?>
<svg width="256px" height="223px" viewBox="0 0 256 223" version="1.1" xmlns="http://www.w3.org/2000/svg" xmlns:xlink="http://www.w3.org/1999/xlink" preserveAspectRatio="xMidYMid">
	<g fill="#4A69A5">
		<path d="M72.4263785,0 L53.8655403,0 L53.8655403,52.5075627 L76.5003113,75.1423337 L49.3407589,75.1423337 L19.6906755,45.4922503 L19.6906755,0 L0,0 L0,53.8655403 L40.2857641,94.1540204 L94.604869,94.1540204 L114.07012,113.616556 L62.0134061,113.616556 L105.922254,158.883382 L41.6437417,222.70833 L66.994468,222.70833 L131.270265,157.978969 L106.826668,133.535371 L236.741671,133.535371 L236.741671,141.683237 L180.611024,175.179113 L133.535371,222.70833 L160.241359,222.70833 L192.379258,190.116867 L255.753357,152.093494 L255.753357,113.616556 L196.002342,113.616556 L175.632678,93.2468913 L198.718297,70.1612718 L198.718297,18.5581222 L179.47847,18.5581222 L179.47847,61.5625575 L160.694924,80.1206797 L143.945628,62.5810407 L143.945628,18.5581222 L125.838354,18.5581222 L125.838354,71.0684008 L168.174665,113.616556 L142.343214,113.616556 L72.4263785,44.359697 L72.4263785,0"></path>
		<path d="M170.651616,145.303605 L145.303605,145.303605 L157.525404,158.429817 L170.651616,145.303605"></path>
	</g>
</svg>
